; generated by Slic3r 1.2.9 on 2017-10-10 at 23:42:54

; Profile for Sharebot !

; external perimeters extrusion width = 0.40mm
; perimeters extrusion width = 0.40mm
; infill extrusion width = 0.60mm
; solid infill extrusion width = 0.50mm
; top infill extrusion width = 0.40mm

M107
M190 S60 ; set bed temperature
M104 S232 ; set temperature
M218 T1 X-58.5 Y0
G28 ;Home all axis
T0
G1 Z10 F1000
G92 E0
M117 Printing...
M109 S232 ; wait for temperature to be reached
G21 ; set units to millimeters
G90 ; use absolute coordinates
M82 ; use absolute distances for extrusion
G92 E0
G1 Z0.300 F6000.000
G1 E-2.50000 F1500.00000
G92 E0
G1 X59.196 Y90.431 F6000.000
G1 E2.50000 F1500.00000
G1 X59.837 Y90.095 E2.55735 F840.000
G1 X60.490 Y89.848 E2.61271
G1 X61.186 Y89.676 E2.66958
G1 X61.741 Y89.595 E2.71403
G1 X93.159 Y88.071 E5.20774
G1 X113.374 Y87.292 E6.81148
G1 X115.262 Y87.291 E6.96118
G1 X116.637 Y87.376 E7.07039 F840.000
G1 X138.414 Y89.607 E8.80588
G1 X138.814 Y89.676 E8.83802
G1 X139.510 Y89.848 E8.89489
G1 X140.163 Y90.095 E8.95025
G1 X140.804 Y90.431 E9.00760
G1 X141.381 Y90.829 E9.06318
G1 X141.923 Y91.308 E9.12053
G1 X142.389 Y91.832 E9.17612
G1 X142.800 Y92.428 E9.23347
G1 X143.126 Y93.048 E9.28905
G1 X143.383 Y93.724 E9.34640
G1 X143.551 Y94.405 E9.40202
G1 X143.639 Y95.125 E9.45947
G1 X143.660 Y95.476 E9.48737
G1 X143.660 Y101.493 E9.96436
G1 X143.267 Y102.953 E10.08421
G1 X141.776 Y104.214 E10.23903
G1 X141.135 Y104.455 E10.29336
G1 X140.671 Y104.587 E10.33159
G1 X140.056 Y104.707 E10.38126
G1 X139.686 Y104.755 E10.41084
G1 X139.014 Y104.793 E10.46416
G1 X59.246 Y104.793 E16.78802
G1 X57.786 Y104.399 E16.90787
G1 X56.722 Y103.326 E17.02772
G1 X56.340 Y101.886 E17.14583
G1 X56.340 Y95.476 E17.65397
G1 X56.361 Y95.125 E17.68187
G1 X56.449 Y94.405 E17.73933
G1 X56.617 Y93.724 E17.79494
G1 X56.874 Y93.048 E17.85230
G1 X57.199 Y92.429 E17.90772
G1 X57.607 Y91.839 E17.96459
G1 X58.070 Y91.315 E18.02002
G1 X58.616 Y90.831 E18.07785
G1 X59.153 Y90.461 E18.12958
G1 X59.491 Y90.994 F6000.000
G1 X60.132 Y90.658 E18.18693 F840.000
G1 X60.642 Y90.465 E18.23019
G1 X61.338 Y90.293 E18.28706
G1 X61.772 Y90.230 E18.32179
G1 X93.184 Y88.706 E20.81499
G1 X113.398 Y87.927 E22.41874
G1 X115.262 Y87.926 E22.56648
G1 X116.572 Y88.009 E22.67056 F840.000
G1 X138.349 Y90.239 E24.40605
G1 X138.662 Y90.293 E24.43117
G1 X139.358 Y90.465 E24.48804
G1 X139.868 Y90.658 E24.53129
G1 X140.509 Y90.994 E24.58864
G1 X140.960 Y91.305 E24.63206
G1 X141.502 Y91.784 E24.68942
G1 X141.866 Y92.194 E24.73285
G1 X142.277 Y92.789 E24.79020
G1 X142.532 Y93.274 E24.83363
G1 X142.789 Y93.950 E24.89098
G1 X142.920 Y94.482 E24.93444
G1 X143.024 Y95.476 E25.01367
G1 X143.024 Y101.493 E25.49065
G1 X142.633 Y102.767 E25.59633
G1 X141.552 Y103.619 E25.70543
G1 X140.911 Y103.860 E25.75975
G1 X140.548 Y103.963 E25.78963
G1 X139.934 Y104.083 E25.83929
G1 X139.644 Y104.121 E25.86240
G1 X139.014 Y104.157 E25.91249
G1 X59.246 Y104.157 E32.23630
G1 X57.972 Y103.766 E32.34198
G1 X57.137 Y102.727 E32.44766
G1 X56.976 Y101.886 E32.51553
G1 X56.976 Y95.476 E33.02367
G1 X57.080 Y94.482 E33.10290
G1 X57.211 Y93.950 E33.14635
G1 X57.468 Y93.274 E33.20371
G1 X57.722 Y92.790 E33.24701
G1 X58.130 Y92.200 E33.30388
G1 X58.492 Y91.791 E33.34718
G1 X59.037 Y91.307 E33.40502
G1 X59.448 Y91.024 E33.44453
G1 X59.786 Y91.557 F6000.000
G1 X60.427 Y91.221 E33.50188 F840.000
G1 X60.794 Y91.082 E33.53303
G1 X61.491 Y90.911 E33.58990
G1 X61.803 Y90.865 E33.61491
G1 X93.208 Y89.341 E36.10762
G1 X113.423 Y88.563 E37.71136
G1 X115.262 Y88.562 E37.85715
G1 X116.507 Y88.641 E37.95610 F840.000
G1 X138.285 Y90.872 E39.69159
G1 X139.206 Y91.082 E39.76651
G1 X139.573 Y91.221 E39.79766
G1 X140.214 Y91.557 E39.85502
G1 X140.539 Y91.781 E39.88629
G1 X141.081 Y92.260 E39.94364
G1 X141.343 Y92.555 E39.97492
G1 X141.754 Y93.150 E40.03227
G1 X141.938 Y93.500 E40.06354
G1 X142.195 Y94.176 E40.12090
G1 X142.289 Y94.559 E40.15219
G1 X142.389 Y95.476 E40.22533
G1 X142.389 Y101.493 E40.70231
G1 X142.001 Y102.550 E40.79160
G1 X141.329 Y103.024 E40.85680
G1 X140.687 Y103.265 E40.91112
G1 X140.426 Y103.339 E40.93264
G1 X139.811 Y103.459 E40.98230
G1 X139.013 Y103.521 E41.04577
G1 X59.246 Y103.521 E47.36953
G1 X58.189 Y103.133 E47.45882
G1 X57.611 Y101.886 E47.56782
G1 X57.611 Y95.476 E48.07596
G1 X57.711 Y94.559 E48.14910
G1 X57.805 Y94.176 E48.18039
G1 X58.062 Y93.500 E48.23775
G1 X58.245 Y93.151 E48.26893
G1 X58.653 Y92.561 E48.32580
G1 X58.913 Y92.266 E48.35699
G1 X59.459 Y91.782 E48.41482
G1 X59.743 Y91.587 E48.44211
G1 E45.94211 F1500.00000
G92 E0
G1 X107.388 Y100.541 F6000.000
G1 E2.50000 F1500.00000
G1 X106.947 Y100.599 E2.53525 F840.000
G1 X106.507 Y100.541 E2.57049
G1 X106.096 Y100.371 E2.60574
G1 X105.743 Y100.101 E2.64098
G1 X105.472 Y99.748 E2.67623
G1 X105.302 Y99.337 E2.71147
G1 X105.244 Y98.896 E2.74672
G1 X105.302 Y98.456 E2.78196
G1 X105.472 Y98.045 E2.81721
G1 X105.743 Y97.692 E2.85245
G1 X106.096 Y97.421 E2.88770
G1 X106.507 Y97.251 E2.92294
G1 X106.947 Y97.193 E2.95819 F840.000
G1 X107.388 Y97.251 E2.99343
G1 X107.799 Y97.421 E3.02868
G1 X108.152 Y97.692 E3.06392
G1 X108.422 Y98.045 E3.09917
G1 X108.592 Y98.456 E3.13441
G1 X108.650 Y98.896 E3.16966
G1 X108.592 Y99.337 E3.20490
G1 X108.422 Y99.748 E3.24015
G1 X108.152 Y100.101 E3.27539
G1 X107.799 Y100.371 E3.31064
G1 X107.437 Y100.521 E3.34172
G1 X107.283 Y100.875 F6000.000
G1 E0.84172 F1500.00000
G92 E0
G1 X105.330 Y100.911 F6000.000
G1 E2.50000 F1500.00000
G1 X101.439 Y100.911 E2.80843 F840.000
G1 X101.473 Y100.440 E2.84581
G1 X101.716 Y99.319 E2.93681
G1 X102.118 Y98.243 E3.02781
G1 X102.668 Y97.236 E3.11881
G1 X103.356 Y96.317 E3.20981
G1 X104.167 Y95.505 E3.30082
G1 X105.076 Y94.825 E3.39083
G1 X106.095 Y94.268 E3.48285
G1 X107.170 Y93.867 E3.57380
G1 X108.292 Y93.624 E3.66483
G1 X108.962 Y93.576 E3.71806
G1 X108.962 Y97.279 E4.01159
G1 X108.703 Y97.367 E4.03325
G1 X108.605 Y97.239 E4.04602
G1 X108.119 Y96.866 E4.09454
G1 X107.554 Y96.632 E4.14305
G1 X106.947 Y96.552 E4.19156
G1 X106.341 Y96.632 E4.24008
G1 X105.775 Y96.866 E4.28859
G1 X105.290 Y97.239 E4.33710
G1 X104.917 Y97.724 E4.38562
G1 X104.683 Y98.290 E4.43413
G1 X104.603 Y98.896 E4.48264
G1 X104.683 Y99.503 E4.53116
G1 X104.917 Y100.068 E4.57967
G1 X105.290 Y100.554 E4.62818
G1 X105.418 Y100.652 E4.64095
G1 X105.347 Y100.861 E4.65846
G1 E2.15846 F1500.00000
G92 E0
G1 X100.757 Y101.546 F6000.000
G1 E2.50000 F1500.00000
G1 X100.842 Y100.350 E2.59509 F840.000
G1 X101.105 Y99.139 E2.69331
G1 X101.538 Y97.978 E2.79152
G1 X102.132 Y96.891 E2.88973
G1 X102.874 Y95.899 E2.98795
G1 X103.750 Y95.024 E3.08616
G1 X104.732 Y94.289 E3.18335
G1 X105.830 Y93.688 E3.28259
G1 X106.991 Y93.256 E3.38079
G1 X108.201 Y92.993 E3.47901
G1 X109.597 Y92.894 E3.58996
G1 X109.597 Y98.877 E4.06428
G1 X109.528 Y99.488 E4.11305
G1 X109.334 Y100.043 E4.15965
G1 X109.019 Y100.545 E4.20668
G1 X108.595 Y100.969 E4.25418
G1 X108.097 Y101.281 E4.30077
G1 X107.537 Y101.478 E4.34782
G1 X106.928 Y101.546 E4.39645
G1 X100.809 Y101.546 E4.88152
G1 X100.946 Y101.252 F6000.000
G1 E2.38152 F1500.00000
G92 E0
G1 X101.889 Y100.219 F6000.000
G1 E2.50000 F1500.00000
G1 X102.196 Y100.525 E2.53439 F840.000
G1 X103.095 Y100.525 E2.60576
G1 X102.050 Y99.480 E2.72307
G1 X102.277 Y98.808 E2.77937
G1 X103.995 Y100.525 E2.97211
G1 X104.430 Y100.061 E3.02260
G1 X102.541 Y98.172 E3.23456
G1 X102.859 Y97.590 E3.28717
G1 X104.223 Y98.955 E3.44030
G1 X104.354 Y98.185 E3.50220
G1 X103.220 Y97.051 E3.62944
G1 X103.617 Y96.549 E3.68025
G1 X104.627 Y97.559 E3.79350
G1 X105.017 Y97.050 E3.84441
G1 X104.067 Y96.100 E3.95102
G1 X104.522 Y95.654 E4.00149
G1 X105.515 Y96.648 E4.11300
G1 X106.118 Y96.352 E4.16632
G1 X105.036 Y95.269 E4.28778
G1 X105.593 Y94.927 E4.33967
G1 X106.858 Y96.192 E4.48162
G1 X107.827 Y96.261 E4.55869
G1 X106.175 Y94.609 E4.74411
G1 X106.830 Y94.364 E4.79960
G1 X108.576 Y96.111 E4.99555
G1 X108.576 Y95.211 E5.06693
G1 X107.524 Y94.159 E5.18497
G1 X108.268 Y94.003 E5.24526
G1 X108.576 Y94.311 E5.27986
G1 E2.77986 F1500.00000
G92 E0
G1 X108.948 Y97.619 F6000.000
G1 E2.50000 F1500.00000
G1 X109.083 Y98.297 E2.55485 F840.000
G1 X109.123 Y98.850 E2.59875
G1 X109.064 Y99.382 E2.64118
G1 X108.902 Y99.835 E2.67932
G1 X108.835 Y99.964 E2.69086
G1 X108.643 Y100.245 E2.71788
G1 X108.493 Y100.416 E2.73583
G1 X108.295 Y100.593 E2.75690
G1 X108.015 Y100.784 E2.78379
G1 X107.889 Y100.849 E2.79504
G1 X107.431 Y101.013 E2.83361
G1 X106.927 Y101.072 E2.87382
G1 X106.399 Y101.039 E2.91580
G1 X105.670 Y100.897 E2.97466
G1 E0.47466 F1500.00000
G92 E0
G1 X115.721 Y96.586 F6000.000
G1 E2.50000 F1500.00000
G1 X115.642 Y95.979 E2.54850 F840.000
G1 X115.721 Y95.372 E2.59706
G1 X115.956 Y94.807 E2.64555
G1 X116.328 Y94.322 E2.69405
G1 X116.814 Y93.949 E2.74260
G1 X117.379 Y93.715 E2.79109
G1 X117.986 Y93.635 E2.83961 F840.000
G1 X118.593 Y93.715 E2.88814
G1 X119.158 Y93.949 E2.93663
G1 X119.643 Y94.321 E2.98515
G1 X120.016 Y94.807 E3.03369
G1 X120.250 Y95.372 E3.08219
G1 X120.330 Y95.979 E3.13070
G1 X120.250 Y96.586 E3.17924
G1 X120.016 Y97.151 E3.22773
G1 X119.643 Y97.637 E3.27626
G1 X119.158 Y98.009 E3.32478
G1 X118.593 Y98.243 E3.37327
G1 X117.986 Y98.323 E3.42181
G1 X117.379 Y98.243 E3.47033
G1 X116.814 Y98.009 E3.51883
G1 X116.328 Y97.637 E3.56734
G1 X115.955 Y97.151 E3.61588
G1 X115.741 Y96.634 E3.66022
G1 X116.341 Y96.420 F6000.000
G1 X116.283 Y95.979 E3.69545 F840.000
G1 X116.341 Y95.538 E3.73074
G1 X116.511 Y95.127 E3.76596
G1 X116.781 Y94.775 E3.80120
G1 X117.134 Y94.504 E3.83648
G1 X117.545 Y94.334 E3.87170
G1 X117.986 Y94.276 E3.90696 F840.000
G1 X118.427 Y94.334 E3.94222
G1 X118.837 Y94.504 E3.97744
G1 X119.190 Y94.775 E4.01269
G1 X119.461 Y95.128 E4.04796
G1 X119.631 Y95.538 E4.08319
G1 X119.689 Y95.979 E4.11843
G1 X119.631 Y96.420 E4.15371
G1 X119.461 Y96.831 E4.18893
G1 X119.190 Y97.183 E4.22419
G1 X118.837 Y97.454 E4.25944
G1 X118.427 Y97.624 E4.29467
G1 X117.986 Y97.682 E4.32994
G1 X117.545 Y97.624 E4.36519
G1 X117.134 Y97.454 E4.40042
G1 X116.782 Y97.183 E4.43567
G1 X116.511 Y96.830 E4.47093
G1 X116.361 Y96.468 E4.50200
G1 X116.007 Y96.315 F6000.000
G1 E2.00200 F1500.00000
G92 E0
G1 X114.471 Y91.183 F6000.000
G1 E2.50000 F1500.00000
G1 X115.229 Y91.183 E2.56005 F840.000
G1 X116.212 Y91.247 E2.63820
G1 X117.175 Y91.437 E2.71595
G1 X118.103 Y91.751 E2.79365
G1 X118.981 Y92.183 E2.87123
G1 X119.818 Y92.745 E2.95108
G1 X120.535 Y93.373 E3.02669
G1 X121.181 Y94.110 E3.10440
G1 X121.726 Y94.925 E3.18210
G1 X122.148 Y95.780 E3.25772
G1 X122.474 Y96.733 E3.33758
G1 X122.665 Y97.694 E3.41519
G1 X122.729 Y98.677 E3.49330
G1 X122.729 Y99.493 E3.55804
G1 X118.029 Y99.493 E3.93066
G1 X117.373 Y99.436 E3.98285
G1 X116.783 Y99.277 E4.03130
G1 X116.229 Y99.019 E4.07975
G1 X115.729 Y98.668 E4.12821
G1 X115.296 Y98.236 E4.17667
G1 X114.946 Y97.735 E4.22513
G1 X114.688 Y97.182 E4.27355
G1 X114.528 Y96.585 E4.32252
G1 X114.471 Y95.936 E4.37414
G1 X114.471 Y91.235 E4.74681
G1 E2.24681 F1500.00000
G92 E0
G1 X122.538 Y100.129 F6000.000
G1 E2.50000 F1500.00000
G1 X118.001 Y100.129 E2.85967 F840.000
G1 X117.262 Y100.064 E2.91849
G1 X116.565 Y99.877 E2.97575
G1 X115.910 Y99.571 E3.03301
G1 X115.318 Y99.157 E3.09028
G1 X114.808 Y98.646 E3.14754
G1 X114.393 Y98.054 E3.20481
G1 X114.088 Y97.400 E3.26206
G1 X113.900 Y96.695 E3.31986
G1 X113.836 Y95.964 E3.37808
G1 X113.836 Y90.547 E3.80751
G1 X115.250 Y90.547 E3.91961
G1 X116.295 Y90.616 E4.00267
G1 X117.339 Y90.822 E4.08700
G1 X118.346 Y91.163 E4.17131
G1 X119.300 Y91.632 E4.25558
G1 X120.206 Y92.240 E4.34206
G1 X120.985 Y92.923 E4.42421
G1 X121.686 Y93.722 E4.50853
G1 X122.277 Y94.606 E4.59284
G1 X122.736 Y95.536 E4.67500
G1 X123.089 Y96.568 E4.76148
G1 X123.296 Y97.611 E4.84576
G1 X123.365 Y98.656 E4.92881
G1 X123.366 Y101.546 E5.15795
G1 X122.538 Y101.546 E5.22356
G1 X122.538 Y100.182 E5.33176
G1 X122.538 Y99.779 F6000.000
G1 E2.83176 F1500.00000
G92 E0
G1 X119.899 Y99.108 F6000.000
G1 E2.50000 F1500.00000
G1 X119.584 Y98.793 E2.54049 F840.000
G1 X119.775 Y97.953 E2.61872
G1 X120.930 Y99.108 E2.76709
G1 X121.960 Y99.108 E2.86070
G1 X120.246 Y97.395 E3.08084
G1 X120.577 Y96.695 E3.15115
G1 X122.318 Y98.436 E3.37480
G1 X122.152 Y97.240 E3.48448
G1 X120.714 Y95.802 E3.66925
G1 X121.223 Y95.281 E3.73544
G1 X121.551 Y95.609 E3.77764
G1 X120.923 Y95.058 F6000.000
G1 X120.627 Y94.509 E3.88154 F840.000
G1 X120.074 Y93.834 E4.02690
G1 X119.457 Y93.335 E4.15907
G1 X118.975 Y93.071 E4.25069
G1 X118.762 Y92.753 F6000.000
G1 X118.433 Y92.425 E4.29341 F840.000
G1 X118.223 Y93.258 E4.37249
G1 X116.738 Y91.773 E4.56575
G1 X115.519 Y91.597 E4.67913
G1 X117.297 Y93.376 E4.91059
G1 X116.585 Y93.707 E4.98288
G1 X114.857 Y91.979 E5.20778
G1 X114.857 Y93.022 E5.30380
G1 X116.017 Y94.183 E5.45481
G1 X115.172 Y94.381 E5.53471
G1 X114.857 Y94.065 E5.57572
G1 X115.184 Y94.805 F6000.000
G1 X115.102 Y95.248 E5.65075 F840.000
G1 X115.058 Y95.945 E5.76699
G1 X115.112 Y96.482 E5.85697
G1 X115.156 Y96.703 E5.89441
G1 X115.245 Y96.979 E5.94276
G1 X115.451 Y97.443 E6.02743
G1 X115.751 Y97.855 E6.11221
G1 X115.944 Y98.068 E6.16026
G1 X116.110 Y98.214 E6.19697
G1 X116.521 Y98.514 E6.28176
G1 X116.986 Y98.720 E6.36654
G1 X117.262 Y98.809 E6.41486
G1 X117.477 Y98.852 E6.45126
G1 X118.020 Y98.907 E6.54232
G1 X118.716 Y98.863 E6.65851
G1 X119.159 Y98.780 E6.73355
G1 E4.23355 F1500.00000
G92 E0
G1 X126.448 Y99.337 F6000.000
G1 E2.50000 F1500.00000
G1 X126.390 Y98.896 E2.53523 F840.000
G1 X126.448 Y98.455 E2.57051
G1 X126.618 Y98.045 E2.60574
G1 X126.889 Y97.692 E2.64098
G1 X127.242 Y97.421 E2.67624
G1 X127.652 Y97.251 E2.71147
G1 X128.093 Y97.193 E2.74674 F840.000
G1 X128.534 Y97.251 E2.78197
G1 X128.945 Y97.421 E2.81723
G1 X129.298 Y97.692 E2.85246
G1 X129.568 Y98.045 E2.88772
G1 X129.738 Y98.456 E2.92296
G1 X129.796 Y98.896 E2.95820
G1 X129.738 Y99.337 E2.99346
G1 X129.568 Y99.748 E3.02870
G1 X129.298 Y100.101 E3.06394
G1 X128.945 Y100.371 E3.09919
G1 X128.534 Y100.541 E3.13445
G1 X128.093 Y100.599 E3.16969
G1 X127.653 Y100.541 E3.20493
G1 X127.242 Y100.371 E3.24017
G1 X126.889 Y100.100 E3.27544
G1 X126.618 Y99.748 E3.31068
G1 X126.468 Y99.386 E3.34176
G1 X126.114 Y99.232 F6000.000
G1 E0.84176 F1500.00000
G92 E0
G1 X126.079 Y97.279 F6000.000
G1 E2.50000 F1500.00000
G1 X126.079 Y95.849 E2.61330 F840.000
G1 X127.386 Y96.205 E2.72068
G1 X127.770 Y96.265 E2.75147
G1 X127.765 Y96.595 E2.77764
G1 X127.487 Y96.632 E2.79994
G1 X126.921 Y96.866 E2.84844
G1 X126.436 Y97.239 E2.89696
G1 X126.338 Y97.366 E2.90972
G1 X126.129 Y97.295 E2.92722
G1 E0.42722 F1500.00000
G92 E0
G1 X128.996 Y96.755 F6000.000
G1 E2.50000 F1500.00000
G1 X129.067 Y96.441 E2.52548 F840.000
G1 X130.108 Y96.496 E2.60807
G1 X130.108 Y97.279 E2.67013
G1 X129.849 Y97.366 E2.69180
G1 X129.751 Y97.239 E2.70457
G1 X129.266 Y96.866 E2.75307
G1 X129.045 Y96.775 E2.77200
G1 E0.27200 F1500.00000
G92 E0
G1 X130.743 Y95.845 F6000.000
G1 E2.50000 F1500.00000
G1 X130.743 Y98.875 E2.74020 F840.000
G1 X130.664 Y99.531 E2.79259
G1 X130.438 Y100.126 E2.84306
G1 X130.076 Y100.650 E2.89354
G1 X129.599 Y101.074 E2.94413
G1 X129.034 Y101.371 E2.99470
G1 X128.409 Y101.525 E3.04572
G1 X127.777 Y101.525 E3.09587
G1 X127.157 Y101.372 E3.14646
G1 X126.587 Y101.073 E3.19746
G1 X126.110 Y100.650 E3.24804
G1 X125.748 Y100.124 E3.29863
G1 X125.523 Y99.529 E3.34908
G1 X125.443 Y98.877 E3.40121
G1 X125.443 Y94.937 E3.71354
G1 X126.165 Y95.214 E3.77487
G1 X127.519 Y95.582 E3.88610
G1 X128.856 Y95.794 E3.99337
G1 X130.203 Y95.864 E4.10035
G1 X130.691 Y95.847 E4.13902
G1 X130.572 Y96.150 F6000.000
G1 E1.63902 F1500.00000
G92 E0
G1 X130.094 Y97.619 F6000.000
G1 E2.50000 F1500.00000
G1 X130.229 Y98.297 E2.55486 F840.000
G1 X130.269 Y98.876 E2.60084
G1 X130.197 Y99.440 E2.64589
G1 X129.983 Y99.965 E2.69085
G1 X129.641 Y100.416 E2.73576
G1 X129.326 Y100.679 E2.76827
G1 X129.194 Y100.764 E2.78073
G1 X128.864 Y100.921 E2.80971
G1 X128.672 Y100.984 E2.82568
G1 X128.351 Y101.047 E2.85160
G1 X128.075 Y101.063 E2.87358
G1 X127.834 Y101.047 E2.89265
G1 X127.514 Y100.984 E2.91851
G1 X127.327 Y100.923 E2.93412
G1 X126.993 Y100.764 E2.96344
G1 X126.860 Y100.679 E2.97599
G1 X126.546 Y100.416 E3.00843
