; generated by Slic3r 1.2.9 on 2017-11-14 at 19:16:50

; Profile for Sharebot !

; external perimeters extrusion width = 0.40mm
; perimeters extrusion width = 0.40mm
; infill extrusion width = 0.60mm
; solid infill extrusion width = 0.50mm
; top infill extrusion width = 0.40mm

M107
M190 S60 ; set bed temperature
M104 S232 ; set temperature
M218 T1 X-58.5 Y0
G28 ;Home all axis
T0
G1 Z10 F1000
G92 E0
M117 Printing...
M109 S232 ; wait for temperature to be reached
G21 ; set units to millimeters
G90 ; use absolute coordinates
M82 ; use absolute distances for extrusion
G92 E0
G1 Z0.300 F6000.000
G1 E-2.50000 F1500.00000
G92 E0
G1 X21.643 Y46.415 F6000.000
G1 E2.50000 F1500.00000
G1 X22.193 Y46.158 E2.54810 F840.000
G1 X22.669 Y45.985 E2.58827
G1 X24.185 Y45.579 E2.71264
G1 X24.684 Y45.491 E2.75281
G1 X26.500 Y45.343 E2.89727
G1 X173.753 Y45.354 E14.57122
G1 X175.316 Y45.491 E14.69559 F840.000
G1 X175.815 Y45.579 E14.73576
G1 X177.331 Y45.985 E14.86013
G1 X177.807 Y46.158 E14.90030
G1 X179.228 Y46.821 E15.02467
G1 X179.667 Y47.075 E15.06484
G1 X180.952 Y47.974 E15.18922
G1 X181.341 Y48.300 E15.22938
G1 X182.450 Y49.409 E15.35376
G1 X182.776 Y49.798 E15.39393
G1 X183.675 Y51.083 E15.51830
G1 X183.929 Y51.522 E15.55847
G1 X184.592 Y52.943 E15.68284
G1 X184.765 Y53.419 E15.72301
G1 X185.171 Y54.935 E15.84738
G1 X185.259 Y55.434 E15.88755
G1 X185.407 Y57.250 E16.03201
G1 X185.407 Y137.750 E22.41389
G1 X185.259 Y139.566 E22.55835
G1 X185.171 Y140.065 E22.59852
G1 X184.765 Y141.581 E22.72289
G1 X184.592 Y142.057 E22.76306
G1 X183.929 Y143.478 E22.88743
G1 X183.675 Y143.917 E22.92760
G1 X182.776 Y145.202 E23.05197
G1 X182.450 Y145.591 E23.09214
G1 X181.341 Y146.700 E23.21652
G1 X180.952 Y147.026 E23.25668
G1 X179.667 Y147.925 E23.38105
G1 X179.228 Y148.179 E23.42122
G1 X177.807 Y148.842 E23.54560
G1 X177.331 Y149.015 E23.58577
G1 X175.815 Y149.421 E23.71014
G1 X175.316 Y149.509 E23.75031
G1 X173.500 Y149.657 E23.89477
G1 X26.500 Y149.657 E35.54863
G1 X24.684 Y149.509 E35.69309
G1 X24.185 Y149.421 E35.73326
G1 X22.669 Y149.015 E35.85763
G1 X22.193 Y148.842 E35.89780
G1 X20.772 Y148.179 E36.02217
G1 X20.333 Y147.925 E36.06234
G1 X19.048 Y147.026 E36.18671
G1 X18.659 Y146.700 E36.22688
G1 X17.550 Y145.591 E36.35125
G1 X17.224 Y145.202 E36.39142
G1 X16.325 Y143.917 E36.51580
G1 X16.071 Y143.478 E36.55596
G1 X15.408 Y142.057 E36.68034
G1 X15.235 Y141.581 E36.72051
G1 X14.829 Y140.065 E36.84488
G1 X14.741 Y139.566 E36.88505
G1 X14.604 Y138.003 E37.00942
G1 X14.593 Y57.250 E43.41138
G1 X14.741 Y55.434 E43.55584
G1 X14.829 Y54.935 E43.59601
G1 X15.235 Y53.419 E43.72038
G1 X15.408 Y52.943 E43.76055
G1 X16.071 Y51.522 E43.88492
G1 X16.325 Y51.083 E43.92509
G1 X17.224 Y49.798 E44.04946
G1 X17.550 Y49.409 E44.08963
G1 X18.659 Y48.300 E44.21401
G1 X19.048 Y47.974 E44.25418
G1 X20.333 Y47.075 E44.37855
G1 X20.772 Y46.821 E44.41872
G1 X21.596 Y46.437 E44.49082
G1 X21.912 Y46.991 F6000.000
G1 X22.462 Y46.734 E44.53893 F840.000
G1 X22.834 Y46.599 E44.57031
G1 X24.349 Y46.193 E44.69468
G1 X24.739 Y46.124 E44.72607
G1 X26.500 Y45.979 E44.86614
G1 X173.698 Y45.987 E56.53569
G1 X175.261 Y46.124 E56.66006 F840.000
G1 X175.651 Y46.193 E56.69145
G1 X177.166 Y46.599 E56.81582
G1 X177.538 Y46.734 E56.84721
G1 X178.960 Y47.397 E56.97158
G1 X179.303 Y47.595 E57.00296
G1 X180.588 Y48.495 E57.12734
G1 X180.891 Y48.750 E57.15872
G1 X182.000 Y49.859 E57.28309
G1 X182.255 Y50.162 E57.31448
G1 X183.155 Y51.447 E57.43885
G1 X183.353 Y51.790 E57.47024
G1 X184.016 Y53.212 E57.59461
G1 X184.151 Y53.584 E57.62600
G1 X184.557 Y55.099 E57.75037
G1 X184.626 Y55.489 E57.78175
G1 X184.771 Y57.250 E57.92182
G1 X184.771 Y137.750 E64.30370
G1 X184.626 Y139.511 E64.44376
G1 X184.557 Y139.901 E64.47515
G1 X184.151 Y141.416 E64.59953
G1 X184.016 Y141.788 E64.63091
G1 X183.353 Y143.210 E64.75528
G1 X183.155 Y143.553 E64.78666
G1 X182.255 Y144.838 E64.91103
G1 X182.000 Y145.141 E64.94242
G1 X180.891 Y146.250 E65.06680
G1 X180.588 Y146.505 E65.09818
G1 X179.303 Y147.405 E65.22255
G1 X178.960 Y147.603 E65.25394
G1 X177.538 Y148.266 E65.37831
G1 X177.166 Y148.401 E65.40970
G1 X175.651 Y148.807 E65.53407
G1 X175.261 Y148.876 E65.56545
G1 X173.500 Y149.021 E65.70552
G1 X26.500 Y149.021 E77.35938
G1 X24.739 Y148.876 E77.49945
G1 X24.349 Y148.807 E77.53083
G1 X22.834 Y148.401 E77.65520
G1 X22.462 Y148.266 E77.68659
G1 X21.040 Y147.603 E77.81096
G1 X20.697 Y147.405 E77.84235
G1 X19.412 Y146.505 E77.96672
G1 X19.109 Y146.250 E77.99811
G1 X18.000 Y145.141 E78.12248
G1 X17.745 Y144.838 E78.15387
G1 X16.845 Y143.553 E78.27824
G1 X16.647 Y143.210 E78.30962
G1 X15.984 Y141.788 E78.43399
G1 X15.849 Y141.416 E78.46538
G1 X15.443 Y139.901 E78.58975
G1 X15.374 Y139.511 E78.62114
G1 X15.237 Y137.948 E78.74551
G1 X15.229 Y57.250 E85.14308
G1 X15.374 Y55.489 E85.28315
G1 X15.443 Y55.099 E85.31453
G1 X15.849 Y53.584 E85.43890
G1 X15.984 Y53.212 E85.47029
G1 X16.647 Y51.790 E85.59466
G1 X16.845 Y51.447 E85.62605
G1 X17.745 Y50.162 E85.75042
G1 X18.000 Y49.859 E85.78181
G1 X19.109 Y48.750 E85.90618
G1 X19.412 Y48.495 E85.93756
G1 X20.697 Y47.595 E86.06194
G1 X21.040 Y47.397 E86.09332
G1 X21.864 Y47.013 E86.16543
G1 X22.181 Y47.567 F6000.000
G1 X22.731 Y47.310 E86.21353 F840.000
G1 X22.998 Y47.213 E86.23613
G1 X24.514 Y46.807 E86.36051
G1 X24.795 Y46.757 E86.38311
G1 X26.500 Y46.614 E86.51878
G1 X173.643 Y46.621 E98.18394
G1 X175.205 Y46.757 E98.30832 F840.000
G1 X175.486 Y46.807 E98.33092
G1 X177.002 Y47.213 E98.45529
G1 X177.269 Y47.310 E98.47789
G1 X178.691 Y47.973 E98.60226
G1 X178.938 Y48.116 E98.62487
G1 X180.223 Y49.016 E98.74924
G1 X180.442 Y49.199 E98.77184
G1 X181.551 Y50.308 E98.89621
G1 X181.734 Y50.527 E98.91882
G1 X182.634 Y51.812 E99.04319
G1 X182.777 Y52.059 E99.06579
G1 X183.440 Y53.481 E99.19016
G1 X183.537 Y53.748 E99.21276
G1 X183.943 Y55.264 E99.33714
G1 X183.993 Y55.545 E99.35974
G1 X184.136 Y57.250 E99.49541
G1 X184.136 Y137.750 E105.87729
G1 X183.993 Y139.455 E106.01296
G1 X183.943 Y139.736 E106.03556
G1 X183.537 Y141.252 E106.15994
G1 X183.440 Y141.519 E106.18254
G1 X182.777 Y142.941 E106.30691
G1 X182.634 Y143.188 E106.32951
G1 X181.734 Y144.473 E106.45388
G1 X181.551 Y144.692 E106.47649
G1 X180.442 Y145.801 E106.60086
G1 X180.223 Y145.984 E106.62346
G1 X178.938 Y146.884 E106.74783
G1 X178.691 Y147.027 E106.77044
G1 X177.269 Y147.690 E106.89481
G1 X177.002 Y147.787 E106.91741
G1 X175.486 Y148.193 E107.04178
G1 X175.205 Y148.243 E107.06438
G1 X173.500 Y148.386 E107.20006
G1 X26.500 Y148.386 E118.85392
G1 X24.795 Y148.243 E118.98959
G1 X24.514 Y148.193 E119.01219
G1 X22.998 Y147.787 E119.13657
G1 X22.731 Y147.690 E119.15917
G1 X21.309 Y147.027 E119.28354
G1 X21.062 Y146.884 E119.30614
G1 X19.777 Y145.984 E119.43051
G1 X19.558 Y145.801 E119.45312
G1 X18.449 Y144.692 E119.57749
G1 X18.266 Y144.473 E119.60009
G1 X17.366 Y143.188 E119.72446
G1 X17.223 Y142.941 E119.74707
G1 X16.560 Y141.519 E119.87144
G1 X16.463 Y141.252 E119.89404
G1 X16.057 Y139.736 E120.01841
G1 X16.007 Y139.455 E120.04101
G1 X15.871 Y137.893 E120.16539
G1 X15.864 Y57.250 E126.55856
G1 X16.007 Y55.545 E126.69424
G1 X16.057 Y55.264 E126.71684
G1 X16.463 Y53.748 E126.84121
G1 X16.560 Y53.481 E126.86381
G1 X17.223 Y52.059 E126.98818
G1 X17.366 Y51.812 E127.01079
G1 X18.266 Y50.527 E127.13516
G1 X18.449 Y50.308 E127.15776
G1 X19.558 Y49.199 E127.28213
G1 X19.777 Y49.016 E127.30474
G1 X21.062 Y48.116 E127.42911
G1 X21.309 Y47.973 E127.45171
G1 X22.133 Y47.589 E127.52382
G1 E125.02382 F1500.00000
G92 E0
G1 X139.218 Y129.475 F6000.000
G1 E2.50000 F1500.00000
G1 X138.623 Y129.197 E2.55206 F840.000
G1 X138.253 Y128.938 E2.58784
G1 X137.934 Y128.619 E2.62363
G1 X137.675 Y128.250 E2.65941
G1 X137.484 Y127.840 E2.69519
G1 X137.367 Y127.404 E2.73098
G1 X137.328 Y126.955 E2.76676
G1 X137.367 Y126.505 E2.80254
G1 X137.484 Y126.069 E2.83833
G1 X137.675 Y125.660 E2.87411
G1 X137.934 Y125.290 E2.90989
G1 X138.253 Y124.971 E2.94567
G1 X138.623 Y124.712 E2.98146
G1 X139.032 Y124.522 E3.01724
G1 X139.468 Y124.405 E3.05302
G1 X139.888 Y124.368 E3.08644
G1 X140.361 Y124.403 E3.12404
G1 X140.803 Y124.522 E3.16034
G1 X141.212 Y124.712 E3.19613
G1 X141.582 Y124.971 E3.23191
G1 X141.901 Y125.290 E3.26769
G1 X142.160 Y125.660 E3.30348
G1 X142.351 Y126.069 E3.33926
G1 X142.467 Y126.505 E3.37504
G1 X142.507 Y126.955 E3.41083
G1 X142.467 Y127.404 E3.44661
G1 X142.351 Y127.840 E3.48239
G1 X142.160 Y128.250 E3.51817
G1 X141.901 Y128.619 E3.55396
G1 X141.582 Y128.938 E3.58974
G1 X141.236 Y129.180 E3.62315
G1 X140.621 Y129.477 E3.67729
G1 X141.212 Y129.752 E3.72895
G1 X141.582 Y130.011 E3.76473
G1 X141.901 Y130.330 E3.80051
G1 X142.160 Y130.700 E3.83629
G1 X142.351 Y131.109 E3.87208
G1 X142.467 Y131.545 E3.90786
G1 X142.507 Y131.995 E3.94364
G1 X142.467 Y132.444 E3.97942
G1 X142.351 Y132.880 E4.01521
G1 X142.160 Y133.290 E4.05099
G1 X141.901 Y133.659 E4.08677
G1 X141.582 Y133.978 E4.12256
G1 X141.212 Y134.237 E4.15834
G1 X140.592 Y134.527 E4.21261
G1 X141.212 Y134.816 E4.26688
G1 X141.582 Y135.075 E4.30267
G1 X141.901 Y135.394 E4.33845
G1 X142.160 Y135.764 E4.37423
G1 X142.351 Y136.173 E4.41001
G1 X142.467 Y136.609 E4.44580
G1 X142.507 Y137.058 E4.48158
G1 X142.467 Y137.508 E4.51736
G1 X142.351 Y137.944 E4.55315
G1 X142.160 Y138.353 E4.58893
G1 X141.901 Y138.723 E4.62471
G1 X141.582 Y139.042 E4.66049
G1 X141.212 Y139.301 E4.69628
G1 X140.617 Y139.578 E4.74834
G1 X141.212 Y139.856 E4.80040
G1 X141.582 Y140.115 E4.83618
G1 X141.901 Y140.434 E4.87197
G1 X142.160 Y140.804 E4.90775
G1 X142.351 Y141.213 E4.94353
G1 X142.467 Y141.649 E4.97932
G1 X142.507 Y142.098 E5.01510
G1 X142.467 Y142.548 E5.05088
G1 X142.351 Y142.984 E5.08666
G1 X142.160 Y143.393 E5.12245
G1 X141.901 Y143.763 E5.15823
G1 X141.582 Y144.082 E5.19401
G1 X141.236 Y144.324 E5.22743
G1 X140.809 Y144.530 E5.26503
G1 X140.367 Y144.648 E5.30134
G1 X139.917 Y144.688 E5.33712
G1 X139.468 Y144.648 E5.37290
G1 X139.032 Y144.532 E5.40869
G1 X138.623 Y144.341 E5.44447
G1 X138.253 Y144.082 E5.48025
G1 X137.934 Y143.763 E5.51603
G1 X137.675 Y143.393 E5.55182
G1 X137.484 Y142.984 E5.58760
G1 X137.367 Y142.548 E5.62338
G1 X137.328 Y142.098 E5.65916
G1 X137.367 Y141.649 E5.69495
G1 X137.484 Y141.213 E5.73073
G1 X137.675 Y140.804 E5.76651
G1 X137.934 Y140.434 E5.80230
G1 X138.253 Y140.115 E5.83808
G1 X138.623 Y139.856 E5.87386
G1 X139.218 Y139.578 E5.92592
G1 X138.650 Y139.313 E5.97562
G1 X138.258 Y139.047 E6.01322
G1 X137.934 Y138.723 E6.04953
G1 X137.675 Y138.353 E6.08531
G1 X137.484 Y137.944 E6.12109
G1 X137.367 Y137.508 E6.15687
G1 X137.328 Y137.058 E6.19266
G1 X137.367 Y136.609 E6.22844
G1 X137.484 Y136.173 E6.26422
G1 X137.675 Y135.764 E6.30001
G1 X137.934 Y135.394 E6.33579
G1 X138.253 Y135.075 E6.37157
G1 X138.623 Y134.816 E6.40735
G1 X139.243 Y134.527 E6.46163
G1 X138.650 Y134.250 E6.51353
G1 X138.258 Y133.983 E6.55113
G1 X137.934 Y133.659 E6.58744
G1 X137.675 Y133.290 E6.62322
G1 X137.484 Y132.880 E6.65900
G1 X137.367 Y132.444 E6.69479
G1 X137.328 Y131.995 E6.73057
G1 X137.367 Y131.545 E6.76635
G1 X137.484 Y131.109 E6.80214
G1 X137.675 Y130.700 E6.83792
G1 X137.934 Y130.330 E6.87370
G1 X138.253 Y130.011 E6.90948
G1 X138.623 Y129.752 E6.94527
G1 X139.170 Y129.497 E6.99317
G1 E4.49317 F1500.00000
G92 E0
G1 X139.892 Y140.149 F6000.000
G1 E2.50000 F1500.00000
G1 X140.254 Y140.176 E2.52878 F840.000
G1 X140.585 Y140.265 E2.55594
G1 X140.893 Y140.408 E2.58290
G1 X141.172 Y140.604 E2.60987
G1 X141.412 Y140.844 E2.63683
G1 X141.607 Y141.123 E2.66380
G1 X141.751 Y141.431 E2.69076
G1 X141.839 Y141.760 E2.71773
G1 X141.869 Y142.098 E2.74470
G1 X141.839 Y142.437 E2.77166
G1 X141.751 Y142.766 E2.79863
G1 X141.607 Y143.074 E2.82559
G1 X141.412 Y143.353 E2.85256
G1 X141.172 Y143.593 E2.87952
G1 X140.914 Y143.774 E2.90446
G1 X140.587 Y143.931 E2.93324
G1 X140.256 Y144.020 E2.96039
G1 X139.917 Y144.050 E2.98736
G1 X139.578 Y144.020 E3.01433
G1 X139.250 Y143.932 E3.04129
G1 X138.942 Y143.788 E3.06826
G1 X138.663 Y143.593 E3.09522
G1 X138.422 Y143.353 E3.12219
G1 X138.227 Y143.074 E3.14915
G1 X138.084 Y142.766 E3.17612
G1 X137.996 Y142.437 E3.20309
G1 X137.966 Y142.098 E3.23005
G1 X137.996 Y141.760 E3.25702
G1 X138.084 Y141.431 E3.28398
G1 X138.227 Y141.123 E3.31095
G1 X138.422 Y140.844 E3.33791
G1 X138.663 Y140.604 E3.36488
G1 X138.942 Y140.408 E3.39185
G1 X139.250 Y140.265 E3.41881
G1 X139.578 Y140.177 E3.44578
G1 X139.839 Y140.154 E3.46655 F840.000
G1 X140.073 Y139.850 F6000.000
G1 E0.96655 F1500.00000
G92 E0
G1 X139.917 Y139.010 F6000.000
G1 E2.50000 F1500.00000
G1 X139.578 Y138.980 E2.52697 F840.000
G1 X139.250 Y138.892 E2.55393
G1 X138.965 Y138.759 E2.57887
G1 X138.665 Y138.555 E2.60765
G1 X138.422 Y138.313 E2.63480
G1 X138.227 Y138.034 E2.66177
G1 X138.084 Y137.726 E2.68873
G1 X137.996 Y137.397 E2.71570
G1 X137.966 Y137.058 E2.74266
G1 X137.996 Y136.720 E2.76963
G1 X138.084 Y136.391 E2.79660
G1 X138.227 Y136.083 E2.82356
G1 X138.422 Y135.804 E2.85053
G1 X138.663 Y135.564 E2.87749
G1 X138.942 Y135.368 E2.90446
G1 X139.250 Y135.225 E2.93142
G1 X139.578 Y135.137 E2.95839
G1 X139.892 Y135.109 E2.98333 F840.000
G1 X140.254 Y135.136 E3.01211
G1 X140.585 Y135.225 E3.03926
G1 X140.893 Y135.368 E3.06623
G1 X141.172 Y135.564 E3.09319
G1 X141.412 Y135.804 E3.12016
G1 X141.607 Y136.083 E3.14712
G1 X141.751 Y136.391 E3.17409
G1 X141.839 Y136.720 E3.20106
G1 X141.869 Y137.058 E3.22802
G1 X141.839 Y137.397 E3.25499
G1 X141.751 Y137.726 E3.28195
G1 X141.607 Y138.034 E3.30892
G1 X141.412 Y138.313 E3.33589
G1 X141.172 Y138.553 E3.36285
G1 X140.893 Y138.748 E3.38981
G1 X140.585 Y138.892 E3.41678
G1 X140.256 Y138.980 E3.44375
G1 X139.970 Y139.005 E3.46655
G1 X139.739 Y139.299 F6000.000
G1 E0.96655 F1500.00000
G92 E0
G1 X139.917 Y133.946 F6000.000
G1 E2.50000 F1500.00000
G1 X139.578 Y133.917 E2.52697 F840.000
G1 X139.250 Y133.828 E2.55393
G1 X138.965 Y133.696 E2.57887
G1 X138.665 Y133.491 E2.60765
G1 X138.422 Y133.249 E2.63480
G1 X138.227 Y132.970 E2.66177
G1 X138.084 Y132.662 E2.68873
G1 X137.996 Y132.334 E2.71570
G1 X137.966 Y131.995 E2.74267
G1 X137.996 Y131.656 E2.76963
G1 X138.084 Y131.327 E2.79660
G1 X138.227 Y131.019 E2.82356
G1 X138.422 Y130.741 E2.85053
G1 X138.663 Y130.500 E2.87749
G1 X138.942 Y130.305 E2.90446
G1 X139.250 Y130.161 E2.93142
G1 X139.578 Y130.073 E2.95839
G1 X139.892 Y130.046 E2.98333 F840.000
G1 X140.254 Y130.073 E3.01211
G1 X140.585 Y130.161 E3.03926
G1 X140.893 Y130.305 E3.06623
G1 X141.172 Y130.500 E3.09319
G1 X141.412 Y130.741 E3.12016
G1 X141.607 Y131.019 E3.14712
G1 X141.751 Y131.327 E3.17409
G1 X141.839 Y131.656 E3.20106
G1 X141.869 Y131.995 E3.22802
G1 X141.839 Y132.334 E3.25499
G1 X141.751 Y132.662 E3.28195
G1 X141.607 Y132.970 E3.30892
G1 X141.412 Y133.249 E3.33588
G1 X141.172 Y133.490 E3.36285
G1 X140.893 Y133.685 E3.38981
G1 X140.585 Y133.828 E3.41678
G1 X140.256 Y133.917 E3.44375
G1 X139.970 Y133.942 E3.46655
G1 X139.739 Y134.236 F6000.000
G1 E0.96655 F1500.00000
G92 E0
G1 X139.917 Y128.906 F6000.000
G1 E2.50000 F1500.00000
G1 X139.578 Y128.877 E2.52697 F840.000
G1 X139.250 Y128.788 E2.55393
G1 X138.942 Y128.645 E2.58090
G1 X138.663 Y128.450 E2.60786
G1 X138.422 Y128.209 E2.63483
G1 X138.227 Y127.930 E2.66179
G1 X138.084 Y127.622 E2.68876
G1 X137.996 Y127.294 E2.71573
G1 X137.966 Y126.955 E2.74269
G1 X137.996 Y126.616 E2.76966
G1 X138.084 Y126.287 E2.79662
G1 X138.227 Y125.979 E2.82359
G1 X138.422 Y125.701 E2.85055
G1 X138.663 Y125.460 E2.87752
G1 X138.942 Y125.265 E2.90448
G1 X139.250 Y125.121 E2.93145
G1 X139.578 Y125.033 E2.95842
G1 X139.892 Y125.006 E2.98335 F840.000
G1 X140.254 Y125.033 E3.01213
G1 X140.585 Y125.121 E3.03929
G1 X140.893 Y125.265 E3.06625
G1 X141.172 Y125.460 E3.09322
G1 X141.412 Y125.701 E3.12018
G1 X141.607 Y125.979 E3.14715
G1 X141.751 Y126.287 E3.17412
G1 X141.839 Y126.616 E3.20108
G1 X141.869 Y126.955 E3.22805
G1 X141.839 Y127.294 E3.25501
G1 X141.751 Y127.622 E3.28198
G1 X141.607 Y127.930 E3.30894
G1 X141.412 Y128.209 E3.33591
G1 X141.172 Y128.450 E3.36288
G1 X140.914 Y128.630 E3.38781
G1 X140.587 Y128.788 E3.41659
G1 X140.256 Y128.877 E3.44375
G1 X139.970 Y128.902 E3.46655
G1 X139.739 Y129.196 F6000.000
G1 E0.96655 F1500.00000
G92 E0
